icons/applications-system.svg

<?xml version="1.0" encoding="UTF-8" standalone="no"?>
<!-- Created with Inkscape (http://www.inkscape.org/) -->
<svg
   xmlns:dc="http://purl.org/dc/elements/1.1/"
   xmlns:cc="http://creativecommons.org/ns#"
   xmlns:rdf="http://www.w3.org/1999/02/22-rdf-syntax-ns#"
   xmlns:svg="http://www.w3.org/2000/svg"
   xmlns="http://www.w3.org/2000/svg"
   xmlns:sodipodi="http://sodipodi.sourceforge.net/DTD/sodipodi-0.dtd"
   xmlns:inkscape="http://www.inkscape.org/namespaces/inkscape"
   version="1.1"
   width="128"
   height="128"
   id="svg2"
   inkscape:version="0.46+devel"
   sodipodi:docname="applications-system.svg"
   sodipodi:version="0.32"
   inkscape:output_extension="org.inkscape.output.svg.inkscape">
  <metadata
     id="metadata3658">
    <rdf:RDF>
      <cc:Work
         rdf:about="">
        <dc:format>image/svg+xml</dc:format>
        <dc:type
           rdf:resource="http://purl.org/dc/dcmitype/StillImage" />
      </cc:Work>
    </rdf:RDF>
  </metadata>
  <sodipodi:namedview
     pagecolor="#ffffff"
     bordercolor="#666666"
     borderopacity="1"
     objecttolerance="10"
     gridtolerance="10"
     guidetolerance="10"
     inkscape:pageopacity="0"
     inkscape:pageshadow="2"
     inkscape:window-width="1191"
     inkscape:window-height="883"
     id="namedview3656"
     showgrid="false"
     inkscape:zoom="0.67396115"
     inkscape:cx="-325.36154"
     inkscape:cy="64.262295"
     inkscape:window-x="0"
     inkscape:window-y="26"
     inkscape:window-maximized="0"
     inkscape:current-layer="svg2" />
  <defs
     id="defs4">
    <inkscape:perspective
       sodipodi:type="inkscape:persp3d"
       inkscape:vp_x="0 : 64 : 1"
       inkscape:vp_y="0 : 1000 : 0"
       inkscape:vp_z="128 : 64 : 1"
       inkscape:persp3d-origin="64 : 42.666667 : 1"
       id="perspective3660" />
  </defs>
  <g
     transform="translate(-0.1648632,4.0673625e-2)"
     id="layer1"
     style="fill:#000000;fill-opacity:1">
    <path
       d="m 48.505663,0.020956956 c -3.918578,0.008265273 -6.438053,3.3033258 -9.858237,7.26754 0.237839,1.2127983 0.348684,2.46469 0.348684,3.755475 0,9.832731 -7.266256,17.803735 -16.229637,17.803735 -4.855165,0 -9.198028,-2.343986 -12.172228,-6.050488 C 8.0516789,24.490768 6.5368361,27.359368 6.5368361,33.29864 6.5368362,49.087537 14.651655,46.651441 26.823882,46.651441 c 5.337094,0 12.172228,0 12.172228,13.352801 C 39.411731,70.065686 33.280484,69.204041 26.601993,71.06203 11.600312,75.23557 1.69063,70.57643 0.197134,87.474848 -0.7570952,98.271639 3.78587,100.08918 10.467451,102.56629 c 2.420219,-1.57341 5.224351,-2.50365 8.241613,-2.50365 8.963381,0 16.229637,7.97101 16.229637,17.80374 0,1.4938 -0.191293,2.9254 -0.507177,4.31184 3.660307,4.98773 6.947559,7.82453 14.961697,3.82502 14.087317,-7.03036 4.33903,-13.49311 5.832526,-30.391529 0.642015,-7.264193 3.677027,-11.718474 8.114818,-13.352801 7.734436,-2.816607 12.172228,0 17.877959,2.225467 15.256392,5.950612 14.759515,23.555423 28.782246,14.674171 8.4861,-5.374646 7.71737,-10.454951 5.80083,-17.560324 -6.84777,-2.088113 -11.88694,-8.965764 -11.88694,-17.143049 0,-8.177284 5.03917,-15.054935 11.88694,-17.143049 1.91654,-7.105372 2.68527,-12.185678 -5.80083,-17.560324 C 95.978038,20.870548 95.241257,35.54472 81.218524,44.425974 73.29422,49.444808 71.455383,51.102375 63.340565,46.651441 55.225747,37.749574 59.11286,36.823822 59.283156,28.847707 59.620167,13.063139 67.690397,10.34951 55.225747,2.4550613 52.499104,0.7281507 50.350055,0.0170666 48.505663,0.020957 z"
       id="path3794"
       style="opacity:1;fill:#000000;fill-opacity:1;fill-rule:nonzero;stroke:none" />
    <path
       d="m 128.25911,64.455175 c 0,4.916366 -3.63312,8.901868 -8.11482,8.901868 -4.48169,0 -8.11481,-3.985502 -8.11481,-8.901868 0,-4.916365 3.63312,-8.901867 8.11481,-8.901867 4.4817,0 8.11482,3.985502 8.11482,8.901867 z"
       id="path3855"
       style="opacity:1;fill:#000000;fill-opacity:1;fill-rule:nonzero;stroke:none" />
    <path
       d="m 26.823882,117.86638 c 0,4.91637 -3.633128,8.90187 -8.114818,8.90187 -4.481691,0 -8.114819,-3.9855 -8.114819,-8.90187 0,-4.91637 3.633128,-8.90187 8.114819,-8.90187 4.48169,0 8.114818,3.9855 8.114818,8.90187 z"
       id="path3860"
       style="opacity:1;fill:#000000;fill-opacity:1;fill-rule:nonzero;stroke:none" />
    <path
       d="m 30.881291,11.043972 c 0,4.916366 -3.633128,8.901867 -8.114818,8.901867 -4.481691,0 -8.114818,-3.985501 -8.114818,-8.901867 0,-4.9163653 3.633127,-8.901867 8.114818,-8.901867 4.48169,0 8.114818,3.9855017 8.114818,8.901867 z"
       id="path3865"
       style="opacity:1;fill:#000000;fill-opacity:1;fill-rule:nonzero;stroke:none" />
  </g>
</svg>

<?xml version="1.0" encoding="UTF-8" standalone="no"?>
<!-- Created with Inkscape (http://www.inkscape.org/) -->
<svg
   xmlns:dc="http://purl.org/dc/elements/1.1/"
   xmlns:cc="http://creativecommons.org/ns#"
   xmlns:rdf="http://www.w3.org/1999/02/22-rdf-syntax-ns#"
   xmlns:svg="http://www.w3.org/2000/svg"
   xmlns="http://www.w3.org/2000/svg"
   xmlns:sodipodi="http://sodipodi.sourceforge.net/DTD/sodipodi-0.dtd"
   xmlns:inkscape="http://www.inkscape.org/namespaces/inkscape"
   version="1.1"
   width="128"
   height="128"
   id="svg2"
   inkscape:version="0.47 r22583"
   sodipodi:docname="applications-system.svg">
  <metadata
     id="metadata3658">
    <rdf:RDF>
      <cc:Work
         rdf:about="">
        <dc:format>image/svg+xml</dc:format>
        <dc:type
           rdf:resource="http://purl.org/dc/dcmitype/StillImage" />
      </cc:Work>
    </rdf:RDF>
  </metadata>
  <sodipodi:namedview
     pagecolor="#ffffff"
     bordercolor="#666666"
     borderopacity="1"
     objecttolerance="10"
     gridtolerance="10"
     guidetolerance="10"
     inkscape:pageopacity="0"
     inkscape:pageshadow="2"
     inkscape:window-width="1191"
     inkscape:window-height="883"
     id="namedview3656"
     showgrid="false"
     inkscape:zoom="1.90625"
     inkscape:cx="-10.491803"
     inkscape:cy="64.262295"
     inkscape:window-x="0"
     inkscape:window-y="15"
     inkscape:window-maximized="0"
     inkscape:current-layer="svg2" />
  <defs
     id="defs4">
    <inkscape:perspective
       sodipodi:type="inkscape:persp3d"
       inkscape:vp_x="0 : 64 : 1"
       inkscape:vp_y="0 : 1000 : 0"
       inkscape:vp_z="128 : 64 : 1"
       inkscape:persp3d-origin="64 : 42.666667 : 1"
       id="perspective3660" />
  </defs>
  <g
     transform="translate(0,-924.36218)"
     id="layer1"
     style="fill:#000000;fill-opacity:1">
    <path
       d="M 48.505663,0.020956956 C 44.587085,0.029222229 42.06761,3.3242828 38.647426,7.288497 C 38.885265,8.5012953 38.99611,9.753187 38.99611,11.043972 C 38.99611,20.876703 31.729854,28.847707 22.766473,28.847707 C 17.911308,28.847707 13.568445,26.503721 10.594245,22.797219 C 8.0516789,24.490768 6.5368361,27.359368 6.5368361,33.29864 C 6.5368362,49.087537 14.651655,46.651441 26.823882,46.651441 C 32.160976,46.651441 38.99611,46.651441 38.99611,60.004242 C 39.411731,70.065686 33.280484,69.204041 26.601993,71.06203 C 11.600312,75.23557 1.6906301,70.57643 0.19713423,87.474848 C -0.75709497,98.271639 3.7858702,100.08918 10.467451,102.56629 C 12.88767,100.99288 15.691802,100.06264 18.709064,100.06264 C 27.672445,100.06264 34.938701,108.03365 34.938701,117.86638 C 34.938701,119.36018 34.747408,120.79178 34.431524,122.17822 C 38.091831,127.16595 41.379083,130.00275 49.393221,126.00324 C 63.480538,118.97288 53.732251,112.51013 55.225747,95.611711 C 55.867762,88.347518 58.902774,83.893237 63.340565,82.25891 C 71.075001,79.442303 75.512793,82.25891 81.218524,84.484377 C 96.474916,90.434989 95.978039,108.0398 110.00077,99.158548 C 118.48687,93.783902 117.71814,88.703597 115.8016,81.598224 C 108.95383,79.510111 103.91466,72.63246 103.91466,64.455175 C 103.91466,56.277891 108.95383,49.40024 115.8016,47.312126 C 117.71814,40.206754 118.48687,35.126448 110.00077,29.751802 C 95.978038,20.870548 95.241257,35.54472 81.218524,44.425974 C 73.29422,49.444808 71.455383,51.102375 63.340565,46.651441 C 55.225747,37.749574 59.11286,36.823822 59.283156,28.847707 C 59.620167,13.063139 67.690397,10.34951 55.225747,2.4550613 C 52.499104,0.72815066 50.350055,0.017066618 48.505663,0.020956956 z"
       id="path3794"
       style="opacity:1;fill:#000000;fill-opacity:1;fill-rule:nonzero;stroke:none" />
    <path
       d="M 128.25911,64.455175 C 128.25911,69.371541 124.62599,73.357043 120.14429,73.357043 C 115.6626,73.357043 112.02948,69.371541 112.02948,64.455175 C 112.02948,59.53881 115.6626,55.553308 120.14429,55.553308 C 124.62599,55.553308 128.25911,59.53881 128.25911,64.455175 z"
       id="path3855"
       style="opacity:1;fill:#000000;fill-opacity:1;fill-rule:nonzero;stroke:none" />
    <path
       d="M 26.823882,117.86638 C 26.823882,122.78275 23.190754,126.76825 18.709064,126.76825 C 14.227373,126.76825 10.594245,122.78275 10.594245,117.86638 C 10.594245,112.95001 14.227373,108.96451 18.709064,108.96451 C 23.190754,108.96451 26.823882,112.95001 26.823882,117.86638 z"
       id="path3860"
       style="opacity:1;fill:#000000;fill-opacity:1;fill-rule:nonzero;stroke:none" />
    <path
       d="M 30.881291,11.043972 C 30.881291,15.960338 27.248163,19.945839 22.766473,19.945839 C 18.284782,19.945839 14.651655,15.960338 14.651655,11.043972 C 14.651655,6.1276067 18.284782,2.142105 22.766473,2.142105 C 27.248163,2.142105 30.881291,6.1276067 30.881291,11.043972 L 30.881291,11.043972 z"
       id="path3865"
       style="opacity:1;fill:#000000;fill-opacity:1;fill-rule:nonzero;stroke:none" />
  </g>
</svg>
